X: 1083
T: Lord Kelly's Strathspey
%R: strathspey, air
B: Niel Gow & Sons "Complete Repository" v.1 p.8 #3
Z: 2021 John Chambers <jc:trillian.mit.edu>
M: C
L: 1/8
K: Gm
% - - - - - - - - - -
% Voice 1 formatted for proofreading.
V: 1 staves=2
B |\
(DG) (.B.G) dGBG | (CFA).f F>G A/G/F/=E/ |\
D(GTG>B) AcBd | c>f {d}cB/A/ BGG :|\
g/a/ |\
bgdg (Gdg).b | afcf Fcfa |
bgdg fdTcB | A>f (d/c/).B/.A/ BGTGg/a/ ||\
{ga}bgdg (.Gdg).b | afcf (Fcf).a |\
!f!b>ga>^f g>d=f>c | A>f (d/c/).B/.A/ BGG |]
% - - - - - - - - - -
% Voice 2 preserves the book's staff layout.
V: 2 clef=bass middle=d
z | g2g2 g2g2 | f2f2 f2f2 | g2g2 ^f2g2 | c2d2 G2G :| z | g2g2 g2g2 | f2f2 f2f2 |
g2G2 B2c2 | d2D2 G2G2 || g2g2 g2g2 | f2f2 f2f2 | !f!G2A2 B2c2 | d2D2 G2G |]


